X: 14523
T: Gan Ainm
R: reel
M: 4/4
K: Eminor
|:EFGB AFDB,|CDEG FDDA|BAGF GE~E2|GBAc BEED|
EFGB AFDB,|CDEG FDDA|BedB cBAc|1 BEED E2ED:|2 BEED E2EF||
K: Gmaj
|:GBdg edcB|A^ceg fddf|gfed ~c3A|~B3A (3B^cd eg|
fBBA BAB^c|dDBG FEDF|EFGB ABGA|1 BEED E2EF:|2 BEED E2ED||

